**kern	**kern	**dynam
*part1	*part1	*part1
*staff2	*staff1	*
*I"Piano	*	*
*clefF4	*clefG2	*
*k[]	*k[]	*
*M3/4	*M3/4	*
=1	=1	=1
!	!LO:TX:a:i:t=sempre ligato	!
4.AA 4.E	4.A 4.c	pp
8AAL 8F	8AL 8d	.
8AA 8D	8A 8B	.
8AAJ 8F	8AJ 8d	.
=	=	=
4AA 4E	4A 4c	.
2AA 2C	2A 2e	.
=	=	=
4.FF 4.C	4.A 4.g	.
8FFL 8C	8AL 8f	.
8CC 8C	8B-X 8c 8f 8a	.
8CCJ 8C	8B-J 8c 8e 8g	.
=	=	=
2.FF 2.C	2.A 2.c 2.f 2.a	.
=	=	=
4.AA 4.E	4.A 4.c	.
8AAL 8F	8AL 8d	.
8AA 8D	8A 8B	.
8AAJ 8E	8AJ 8c	.
=	=	=
2AA 2F	2A 2d	.
4AA 4E	4A 4c	.
=	=	=
4.EE 4.E	4.c 4.e	.
8EEL 8D 8E	8BL 8e	.
8EE 8C 8E	8A 8e	.
8EEJ 8BB 8E	8G#XJ 8e	.
=	=	=
*-	*-	*-
!!!system-decoration: {(s1,s2)}
